X: 1784
T: Paddy Carey
C:trad
B: australian traditional tunes wiki
M:6/8
L:1/8
R: Jig
Q: 3/8=100
K:C
V:1 
"C"G2c cBc|e2c cBc|"Dm"A2d d2e|"G7"f2d cBA|
"C"G2c cBc|e2c cBc|"G7"dBG GAB|"C"cded2c||
"C"c2e"F"f2a|"C"g2a gec|c2e "F"f2a|"C"gec"G7"d2e|
"C"c2e"F"f2a|"C"g2a gec|"G7"dBG GAB|"C"cded2c||
"Dm"f2d dcd|"C"e2c cBc|"G7"dBG GAB|"C"cdB cde|
"Dm"f2d dcd|"C"e2c cBc|"G7"dBG GAB|"C"cded2c||
"C"c2c c2c|c2a "G7"ged|"C"c2c c2a|gec "G7"d2e|
"C"c2c c2c|c2a "G7"ged|"G7"dBG GAB|"C"cded2c||
% abcbook-tune_id 6342d53ad0ff476efab98353


% abcbook-boost 0
% abcbook-tablature 
% abcbook-transpose 
% abcbook-lastupdated 1665324383702
% abcbook-soundfonts 
% abcbook-repeats 1
% NFF Book 2020
% Bush Traditions recording played by Roland Clarke

